X: 13214
T: Fisher's
R: hornpipe
M: 4/4
K: Fmajor
c2|fcAd BdcB|AFAc BdcB|AFAF BGBG|AFAF G3d|
fcAd BdcB|AFAF BdcB|Acfa bgeg|f2f2 f2:|
|:ef|gece gebe|gece g2ga|gfed c2 ^c2|dBFB dBfd|
cAFA cAfc|dfed cBAG|F2f2 f2:|

